X: 3125
Q:"Strathspey."
M: C
L: 1/16
K: C
(uEF) |\
e3d ce3 ddd2 d3E |\
(ef) |\
g3a ge3 g3a ge3 | c3eg3e ddd2 (d2ef) |
g3a ge3 g3a ge3 | f3dg3e ccc2 (c2ef) |\
g3a ge3 g3a ge3 | F3a E3g DDD2 (D3E) |\


